components/Common/Svg/svgs/research.svg

<svg width="40" height="40" viewBox="0 0 40 40" fill="none" xmlns="http://www.w3.org/2000/svg">
<path fill-rule="evenodd" clip-rule="evenodd" d="M4.07123 13.9536C6.68224 11.3423 10.7764 8.70575 16.6139 8.70575C22.5021 8.70575 26.6161 11.3882 29.2238 14.0212C29.6124 14.4136 29.6093 15.0467 29.2169 15.4354C28.8245 15.824 28.1914 15.8209 27.8027 15.4285C25.4611 13.0642 21.8305 10.7058 16.6139 10.7058C11.4416 10.7058 7.8289 13.0241 5.48552 15.3678C4.31094 16.5425 3.46129 17.7189 2.90659 18.6C2.64352 19.0178 2.44809 19.3672 2.31688 19.6156C2.44808 19.8639 2.6435 20.2131 2.90654 20.6308C3.46123 21.5117 4.31087 22.6879 5.48544 23.8623C7.8288 26.2054 11.4415 28.5233 16.6139 28.5233C17.1662 28.5233 17.6139 28.9711 17.6139 29.5233C17.6139 30.0756 17.1662 30.5233 16.6139 30.5233C10.7764 30.5233 6.68234 27.8874 4.0713 25.2766C2.76867 23.9741 1.82923 22.6734 1.21413 21.6966C0.906085 21.2074 0.677958 20.7971 0.525118 20.5054C0.448662 20.3594 0.390931 20.2429 0.351358 20.1607C0.331568 20.1196 0.316309 20.0871 0.305508 20.0638L0.29264 20.0357L0.288695 20.0269L0.287342 20.0239L0.28682 20.0227C0.286601 20.0223 0.2864 20.0218 1.2002 19.6156C0.286367 19.2095 0.286569 19.2091 0.286787 19.2086L0.287309 19.2074L0.288662 19.2044L0.292606 19.1956L0.305474 19.1676C0.316273 19.1442 0.331532 19.1117 0.351321 19.0706C0.390892 18.9884 0.448622 18.8718 0.525077 18.7258C0.677914 18.434 0.906036 18.0237 1.21407 17.5344C1.82917 16.5574 2.76861 15.2564 4.07123 13.9536ZM1.2002 19.6156L0.2864 20.0218C0.171472 19.7632 0.17146 19.4681 0.286367 19.2095L1.2002 19.6156ZM16.6138 15.1109C14.1258 15.1109 12.1089 17.1278 12.1089 19.6158C12.1089 22.1037 14.1258 24.1207 16.6138 24.1207C17.1661 24.1207 17.6138 24.5684 17.6138 25.1207C17.6138 25.6729 17.1661 26.1207 16.6138 26.1207C13.0212 26.1207 10.1089 23.2083 10.1089 19.6158C10.1089 16.0232 13.0212 13.1109 16.6138 13.1109C19.3117 13.1109 21.6237 14.7531 22.6091 17.0884C22.8239 17.5972 22.5854 18.1838 22.0766 18.3985C21.5678 18.6132 20.9812 18.3748 20.7665 17.866C20.0826 16.2453 18.4795 15.1109 16.6138 15.1109ZM27.4549 18.7843C23.4183 18.7843 20.146 22.0566 20.146 26.0932C20.146 30.1298 23.4183 33.4022 27.4549 33.4022C31.4916 33.4022 34.7639 30.1298 34.7639 26.0932C34.7639 22.0566 31.4916 18.7843 27.4549 18.7843ZM18.146 26.0932C18.146 20.952 22.3137 16.7843 27.4549 16.7843C32.5961 16.7843 36.7639 20.952 36.7639 26.0932C36.7639 28.3037 35.9934 30.3342 34.7064 31.9309L38.8446 36.069C39.2351 36.4596 39.2351 37.0927 38.8446 37.4832C38.454 37.8738 37.8209 37.8738 37.4303 37.4832L33.2922 33.3451C31.6955 34.6318 29.6652 35.4022 27.4549 35.4022C22.3137 35.4022 18.146 31.2344 18.146 26.0932Z" fill="#161616"/>
</svg>

<svg width="40" height="40" viewBox="0 0 40 40" fill="none" xmlns="http://www.w3.org/2000/svg"><path fill-rule="evenodd" clip-rule="evenodd" d="M4.071 13.954c2.611-2.612 6.705-5.248 12.543-5.248 5.888 0 10.002 2.682 12.61 5.315a1 1 0 0 1-1.421 1.407c-2.342-2.364-5.973-4.722-11.19-4.722-5.171 0-8.784 2.318-11.127 4.662a18.73 18.73 0 0 0-2.58 3.232c-.262.418-.458.767-.59 1.016.132.248.328.597.59 1.015.555.88 1.405 2.057 2.58 3.231 2.343 2.343 5.955 4.661 11.128 4.661a1 1 0 0 1 0 2c-5.838 0-9.932-2.636-12.543-5.246a20.727 20.727 0 0 1-2.857-3.58c-.308-.49-.536-.9-.689-1.192a11.54 11.54 0 0 1-.22-.441l-.012-.028-.004-.01-.002-.002v-.001l.913-.407-.913-.407v-.002l.002-.003.004-.008.012-.028a11.517 11.517 0 0 1 .22-.442c.153-.292.381-.702.69-1.192a20.733 20.733 0 0 1 2.856-3.58Zm-2.87 5.662-.915.406a1 1 0 0 1 0-.813l.914.407Zm15.413-4.505a4.505 4.505 0 1 0 0 9.01 1 1 0 1 1 0 2 6.505 6.505 0 1 1 5.995-9.033 1 1 0 1 1-1.843.778 4.506 4.506 0 0 0-4.152-2.755Zm10.84 3.673a7.309 7.309 0 1 0 0 14.618 7.309 7.309 0 0 0 0-14.618Zm-9.308 7.31a9.309 9.309 0 0 1 18.618 0 9.27 9.27 0 0 1-2.058 5.837l4.139 4.138a1 1 0 0 1-1.415 1.414l-4.138-4.138a9.309 9.309 0 0 1-15.146-7.252Z" fill="#161616"/></svg>
